src/assets/img/logos/logo-serie--estudo-de-caso--white.svg

<svg fill="none" height="35" viewBox="0 0 113 35" width="113" xmlns="http://www.w3.org/2000/svg"><g fill="#fff"><path d="m5.25218 5.9598h6.25752l-.4797 3.34096h-6.25757l-.32539 2.22664h6.79576l-.5007 3.5502h-10.7421l2.15678-14.874481h10.74002l-.5214 3.550151h-6.79574z"/><path d="m14.991 10.3851c.6738.9453 1.9607 1.4281 3.1142 1.4281 1.0429 0 1.9607-.3561 2.113-1.1345.1752-.92322-1.1764-1.3235-2.4175-1.49045-2.4175-.37814-4.5889-2.24876-4.0528-5.06273.5882-3.0473 3.377-4.11738005 6.2095-4.11738005 1.8773 0 3.6169.50285205 4.9456 2.37347005l-2.8326 1.89074c-.6529-.71406-1.6687-1.04996-2.5698-1.07209-.9803-.02011-1.8084.33591-1.896 1.0922-.1085.86089.6758 1.23904 1.8522 1.49248 2.6783.48274 5.2939 1.47034 4.5743 5.16736-.5652 2.8924-3.1726 4.3406-6.5099 4.3406-1.8523 0-4.1384-.9031-5.3148-2.6893z"/><path d="m33.7909 3.63242-1.6333 11.45098h-3.9443l1.6353-11.45098h-4.1717l.5214-3.443545h12.2669l-.5026 3.443545z"/><path d="m42.2657 10.0631c-.1752 1.2069.8489 1.7842 1.9607 1.7842 1.1535 0 2.2944-.5874 2.4613-1.7842l1.4371-9.855914h3.9444l-1.4392 9.855914c-.5007 3.4858-3.8547 5.2297-6.9272 5.2297-3.0724 0-5.8821-1.7439-5.3815-5.2297l1.4393-9.855914h3.9422z"/><path d="m60.0413.209176c3.0933 0 5.7736 1.512584 5.273 4.978264l-.7405 4.99636c-.5027 3.4194-3.596 4.8958-6.6893 4.8958h-5.7736l2.1567-14.874445zm-1.5248 11.344424c1.068 0 2.0254-.5672 2.136-1.3658l.7404-5.00036c.1085-.81865-.6549-1.47035-1.7208-1.47035h-1.9836l-1.1535 7.84451z"/><path d="m66.9246 5.10498c.5235-3.41941 3.9214-5.10498 7.1253-5.10498 3.2038 0 6.1658 1.70166 5.6631 5.10498l-.7614 5.07882c-.5006 3.4033-3.7921 5.105-7.1461 5.105-3.2018 0-6.1428-1.7017-5.6318-5.105zm3.1288 5.08282c-.1523 1.0721 1.0033 1.6092 2.1797 1.6092 1.264 0 2.6365-.5451 2.8096-1.7218l.7635-4.97826c.1731-1.11433-.9157-1.68155-2.1798-1.68155-1.264 0-2.6365.56722-2.8096 1.68155z"/><path d="m8.17237 19.6376c2.71163 0 4.79743 1.1746 4.38033 3.9906l-1.0012 6.9112c-.4172 2.7939-2.83264 3.9706-5.53382 3.9706h-5.214628l2.160948-14.8724zm-2.08585 14.3474c2.24438 0 4.57428-1.05 4.92468-3.4456l1.0012-6.9112c.3713-2.4781-1.4809-3.4657-3.92138-3.4657h-4.66814l-2.0045 13.8225z"/><path d="m15.8524 26.8203h7.9742l-.0876.5673h-7.9637l-.9658 6.5954h8.6271l-.0647.525h-9.1777l2.1693-14.8704h9.1777l-.0938.5229h-8.6271z"/><path d="m32.0053 23.5839c.3922-2.7315 3.0266-4.1596 5.9676-4.1596 1.9399 0 3.8797.714 4.5889 2.1421l-.5235.3158c-.6091-1.2813-2.3529-1.9531-4.1175-1.9531-2.3946 0-5.0311 1.219-5.3794 3.6548l-.9804 6.9756c-.3504 2.4358 1.9169 3.6346 4.3136 3.6346 1.5247 0 3.6377-.6034 4.6619-1.8706l.4359.2313c-1.1118 1.4281-3.2039 2.1643-5.1646 2.1643-2.6782 0-5.1833-1.408-4.7974-4.1596z"/><path d="m53.5939 34.508h-.5882l-1.264-5.3142h-7.1232l-2.7241 5.3142h-.5945l7.8282-14.8704h.9804zm-1.9398-5.8331-2.0108-8.6351h-.1293l-4.6118 8.629z"/><path d="m60.9569 26.6514c2.4613.4827 5.077 1.4703 4.445 4.3909-.5319 2.3956-3.0078 3.6809-5.7299 3.6809-1.896 0-3.8129-.7141-4.7286-2.3956l.5444-.2011c.7843 1.3858 2.4843 2.0999 4.2927 2.0999 2.1338 0 4.4011-.9876 5.0332-3.172.5652-2.6471-1.7438-3.3832-4.0529-3.8861-2.2443-.4626-4.9017-1.3034-4.3573-4.1174.4359-2.4579 2.9411-3.6205 5.49-3.6205 1.9836 0 3.7253.6718 4.4658 2.291l-.5444.189c-.6091-1.3456-2.2945-1.9752-4.009-1.9752-2.1777 0-4.3803.881-4.858 3.1097-.4776 2.2286 1.5915 3.1237 4.009 3.6065z"/><path d="m68.733 23.6261c.3922-2.7938 3.3562-4.2018 6.341-4.2018 2.8764 0 5.5338 1.408 5.1416 4.2018l-.9803 6.869c-.3921 2.7959-3.4855 4.224-6.3618 4.224-2.8764 0-5.513-1.4281-5.1208-4.224zm-.4338 6.873c-.3504 2.4801 2.0254 3.699 4.6389 3.699 2.6136 0 5.4024-1.2189 5.7528-3.699l.9803-6.869c.3692-2.6148-2.1129-3.697-4.7056-3.697s-5.3169 1.1345-5.6861 3.697z"/></g><path d="m24.8884 18.8355-19.8156 13.1446c-.48596.3226-1.05408.511-1.64299.5448-.58892.0339-1.17621-.0881-1.69845-.3527-.52224-.2647-.959562-.6619-1.264703-1.1488-.305142-.4869-.466492-1.045-.46664366-1.6139v-26.28518c-.00049091-.5694.16050566-1.12808.46559966-1.61559.305094-.4875.742657-.885242 1.265307-1.15019.52266-.2649472 1.11049-.3870046 1.6999-.35295558.58942.03404908 1.15795.22290858 1.64406.54613058l19.81562 13.142585c.4323.2867.7859.6705 1.0302 1.1184.2442.4478.3719.9462.3719 1.4522s-.1277 1.0044-.3719 1.4523c-.2443.4478-.5979.8316-1.0302 1.1183" fill="#e52228" transform="translate(86.2102 2.16577)"/></svg>

<svg width="113" height="35" viewBox="0 0 113 35" fill="none" xmlns="http://www.w3.org/2000/svg">
<path d="M5.25218 5.9598H11.5097L11.03 9.30076H4.77243L4.44704 11.5274H11.2428L10.7421 15.0776H0L2.15678 0.203119H12.8968L12.3754 3.75327H5.57966L5.25218 5.9598Z" fill="white"/>
<path d="M14.991 10.3851C15.6648 11.3304 16.9517 11.8132 18.1052 11.8132C19.1481 11.8132 20.0659 11.4571 20.2182 10.6787C20.3934 9.75548 19.0418 9.3552 17.8007 9.18825C15.3832 8.81011 13.2118 6.93949 13.7479 4.12552C14.3361 1.07822 17.1249 0.00813995 19.9574 0.00813995C21.8347 0.00813995 23.5743 0.510992 24.903 2.38161L22.0704 4.27235C21.4175 3.55829 20.4017 3.22239 19.5006 3.20026C18.5203 3.18015 17.6922 3.53617 17.6046 4.29246C17.4961 5.15335 18.2804 5.5315 19.4568 5.78494C22.1351 6.26768 24.7507 7.25528 24.0311 10.9523C23.4659 13.8447 20.8585 15.2929 17.5212 15.2929C15.6689 15.2929 13.3828 14.3898 12.2064 12.6036L14.991 10.3851Z" fill="white"/>
<path d="M33.7909 3.63242L32.1576 15.0834H28.2133L29.8486 3.63242H25.6769L26.1983 0.188875H38.4652L37.9626 3.63242H33.7909Z" fill="white"/>
<path d="M42.2657 10.0631C42.0905 11.27 43.1146 11.8473 44.2264 11.8473C45.3799 11.8473 46.5208 11.2599 46.6877 10.0631L48.1248 0.207186H52.0692L50.63 10.0631C50.1293 13.5489 46.7753 15.2928 43.7028 15.2928C40.6304 15.2928 37.8207 13.5489 38.3213 10.0631L39.7606 0.207186H43.7028L42.2657 10.0631Z" fill="white"/>
<path d="M60.0413 0.209176C63.1346 0.209176 65.8149 1.72176 65.3143 5.18744L64.5738 10.1838C64.0711 13.6032 60.9778 15.0796 57.8845 15.0796H52.1109L54.2676 0.205155L60.0413 0.209176ZM58.5165 11.5536C59.5845 11.5536 60.5419 10.9864 60.6525 10.1878L61.3929 5.18744C61.5014 4.36879 60.738 3.71709 59.6721 3.71709H57.6885L56.535 11.5616L58.5165 11.5536Z" fill="white"/>
<path d="M66.9246 5.10498C67.4481 1.68557 70.846 0 74.0499 0C77.2537 0 80.2157 1.70166 79.713 5.10498L78.9516 10.1838C78.451 13.5871 75.1595 15.2888 71.8055 15.2888C68.6037 15.2888 65.6627 13.5871 66.1737 10.1838L66.9246 5.10498ZM70.0534 10.1878C69.9011 11.2599 71.0567 11.797 72.2331 11.797C73.4971 11.797 74.8696 11.2519 75.0427 10.0752L75.8062 5.09694C75.9793 3.98261 74.8905 3.41539 73.6264 3.41539C72.3624 3.41539 70.9899 3.98261 70.8168 5.09694L70.0534 10.1878Z" fill="white"/>
<path d="M8.17237 19.6376C10.884 19.6376 12.9698 20.8122 12.5527 23.6282L11.5515 30.5394C11.1343 33.3333 8.71886 34.51 6.01768 34.51H0.803052L2.964 19.6376H8.17237ZM6.08652 33.985C8.3309 33.985 10.6608 32.935 11.0112 30.5394L12.0124 23.6282C12.3837 21.1501 10.5315 20.1625 8.09102 20.1625H3.42288L1.41838 33.985H6.08652Z" fill="white"/>
<path d="M15.8524 26.8203H23.8266L23.739 27.3876H15.7753L14.8095 33.983H23.4366L23.3719 34.508H14.1942L16.3635 19.6376H25.5412L25.4474 20.1605H16.8203L15.8524 26.8203Z" fill="white"/>
<path d="M32.0053 23.5839C32.3975 20.8524 35.0319 19.4243 37.9729 19.4243C39.9128 19.4243 41.8526 20.1383 42.5618 21.5664L42.0383 21.8822C41.4292 20.6009 39.6854 19.9291 37.9208 19.9291C35.5262 19.9291 32.8897 21.1481 32.5414 23.5839L31.561 30.5595C31.2106 32.9953 33.4779 34.1941 35.8746 34.1941C37.3993 34.1941 39.5123 33.5907 40.5365 32.3235L40.9724 32.5548C39.8606 33.9829 37.7685 34.7191 35.8078 34.7191C33.1296 34.7191 30.6245 33.3111 31.0104 30.5595L32.0053 23.5839Z" fill="white"/>
<path d="M53.5939 34.508H53.0057L51.7417 29.1938H44.6185L41.8944 34.508H41.2999L49.1281 19.6376H50.1085L53.5939 34.508ZM51.6541 28.6749L49.6433 20.0398H49.514L44.9022 28.6688L51.6541 28.6749Z" fill="white"/>
<path d="M60.9569 26.6514C63.4182 27.1341 66.0339 28.1217 65.4019 31.0423C64.87 33.4379 62.3941 34.7232 59.672 34.7232C57.776 34.7232 55.8591 34.0091 54.9434 32.3276L55.4878 32.1265C56.2721 33.5123 57.9721 34.2264 59.7805 34.2264C61.9143 34.2264 64.1816 33.2388 64.8137 31.0544C65.3789 28.4073 63.0699 27.6712 60.7608 27.1683C58.5165 26.7057 55.8591 25.8649 56.4035 23.0509C56.8394 20.593 59.3446 19.4304 61.8935 19.4304C63.8771 19.4304 65.6188 20.1022 66.3593 21.7214L65.8149 21.9104C65.2058 20.5648 63.5204 19.9352 61.8059 19.9352C59.6282 19.9352 57.4256 20.8162 56.9479 23.0449C56.4703 25.2735 58.5394 26.1686 60.9569 26.6514Z" fill="white"/>
<path d="M68.733 23.6261C69.1252 20.8323 72.0892 19.4243 75.074 19.4243C77.9504 19.4243 80.6078 20.8323 80.2156 23.6261L79.2353 30.4951C78.8432 33.291 75.7498 34.7191 72.8735 34.7191C69.9971 34.7191 67.3605 33.291 67.7527 30.4951L68.733 23.6261ZM68.2992 30.4991C67.9488 32.9792 70.3246 34.1981 72.9381 34.1981C75.5517 34.1981 78.3405 32.9792 78.6909 30.4991L79.6712 23.6301C80.0404 21.0153 77.5583 19.9331 74.9656 19.9331C72.3729 19.9331 69.6487 21.0676 69.2795 23.6301L68.2992 30.4991Z" fill="white"/>
<path d="M24.8884 18.8355L5.0728 31.9801C4.58684 32.3027 4.01872 32.4911 3.42981 32.5249C2.84089 32.5588 2.2536 32.4368 1.73136 32.1722C1.20912 31.9075 0.771798 31.5103 0.466657 31.0234C0.161515 30.5365 0.000164997 29.9784 1.3341e-05 29.4095V3.12432C-0.000477566 2.55492 0.160519 1.99624 0.465613 1.50873C0.770707 1.02123 1.20827 0.623488 1.73092 0.35854C2.25358 0.0935928 2.84141 -0.0284646 3.43082 0.00558442C4.02024 0.0396335 4.58877 0.228493 5.07488 0.551715L24.8905 13.6943C25.3228 13.981 25.6764 14.3648 25.9207 14.8127C26.1649 15.2605 26.2926 15.7589 26.2926 16.2649C26.2926 16.7709 26.1649 17.2693 25.9207 17.7172C25.6764 18.165 25.3228 18.5488 24.8905 18.8355" transform="translate(86.2102 2.16577)" fill="#E52228"/>
</svg>
